www/images/rocket.svg

<?xml version="1.0" encoding="UTF-8" standalone="no"?>
<svg
   xmlns:dc="http://purl.org/dc/elements/1.1/"
   xmlns:cc="http://creativecommons.org/ns#"
   xmlns:rdf="http://www.w3.org/1999/02/22-rdf-syntax-ns#"
   xmlns:svg="http://www.w3.org/2000/svg"
   xmlns="http://www.w3.org/2000/svg"
   xmlns:sodipodi="http://sodipodi.sourceforge.net/DTD/sodipodi-0.dtd"
   xmlns:inkscape="http://www.inkscape.org/namespaces/inkscape"
   fill-opacity="1"
   color-rendering="auto"
   color-interpolation="auto"
   stroke="black"
   text-rendering="auto"
   stroke-linecap="square"
   stroke-miterlimit="10"
   stroke-opacity="1"
   shape-rendering="auto"
   fill="black"
   stroke-dasharray="none"
   font-weight="normal"
   stroke-width="1"
   font-family="'Dialog'"
   font-style="normal"
   stroke-linejoin="miter"
   font-size="12"
   stroke-dashoffset="0"
   image-rendering="auto"
   id="svg2"
   version="1.1"
   inkscape:version="0.48.5 r10040"
   width="100%"
   height="100%"
   sodipodi:docname="rocket.svg">
  <metadata
     id="metadata13">
    <rdf:RDF>
      <cc:Work
         rdf:about="">
        <dc:format>image/svg+xml</dc:format>
        <dc:type
           rdf:resource="http://purl.org/dc/dcmitype/StillImage" />
      </cc:Work>
    </rdf:RDF>
  </metadata>
  <sodipodi:namedview
     pagecolor="#ffffff"
     bordercolor="#666666"
     borderopacity="1"
     objecttolerance="10"
     gridtolerance="10"
     guidetolerance="10"
     inkscape:pageopacity="0"
     inkscape:pageshadow="2"
     inkscape:window-width="1331"
     inkscape:window-height="750"
     id="namedview11"
     showgrid="false"
     inkscape:zoom="0.89702957"
     inkscape:cx="367.27931"
     inkscape:cy="739.64606"
     inkscape:window-x="35"
     inkscape:window-y="18"
     inkscape:window-maximized="1"
     inkscape:current-layer="svg2" />
  <!--Unicode Character 'ROCKET' (U+1F680)-->
  <defs
     id="genericDefs" />
  <g
     id="g5"
     transform="translate(-10.033114,-75.57617)">
    <g
       id="g7">
      <path
         d="m 272.8125,222.0469 -0.7031,0.8437 -18.8438,-15.75 7.3125,0 12.2344,14.9063 z m -10.5469,18.1406 q -0.1406,1.4063 -0.7031,1.2656 L 228.375,211.9219 q 1.125,0 3.1641,-0.3516 2.039,-0.3515 3.164,-0.3515 1.9688,0 3.0938,1.125 1.8281,1.8281 13.1484,14.625 11.3203,12.7968 11.3203,13.2187 z m 9.9844,95.625 q -16.875,-10.125 -51.1875,-29.5313 -11.8125,-6.3281 -25.4531,-10.5468 -3.6563,-0.7032 -11.1094,-2.3906 -12.5156,-3.5157 -18,-6.4688 -9.2812,-5.0625 -11.9531,-13.7812 -0.5625,-1.9688 -1.2657,-1.9688 -1.5468,0 -4.9921,2.3203 -3.4453,2.3203 -4.0079,3.8672 -0.1406,0.4219 -1.9687,10.5469 -2.9531,15.75 -4.5,26.5781 -0.5625,6.1875 -2.9531,18 -0.4219,1.4063 -2.8125,3.375 Q 119.5312,323.4375 94.2188,297.9844 87.75,291.7969 75.375,279 72.9844,276.4688 69.6797,266.625 66.375,256.7812 66.6562,253.4062 l 4.2188,-39.7968 q 0.1406,-1.2656 -16.3125,-18 Q 45,185.9062 35.2969,176.2031 q -3.6563,-3.5156 -9.8438,-11.25 -13.9219,-21.7969 -13.9219,-44.1562 0,-21.0938 5.9063,-40.2188 20.3906,-5.0625 38.5313,-5.0625 16.5937,0 32.2031,7.3125 4.3593,1.5469 12.2343,5.625 5.2032,3.7969 16.3126,14.3438 8.5781,8.4375 17.1562,17.0156 15.0469,14.7656 16.4531,14.625 l 39.5157,-3.7969 q 14.3437,-1.4062 25.7343,8.2969 11.9531,10.125 56.25,57.2344 -1.125,0.9843 -2.9531,2.25 0,0 -11.5312,1.9687 l -22.3594,3.7969 q -8.7188,0.4219 -22.7813,4.0781 -2.3906,1.4063 -5.0625,9 4.7813,2.1094 9.9141,8.086 5.1328,5.9765 6.8203,11.039 0.9844,3.6563 3.0938,11.1094 5.9062,18.2812 20.6718,44.8594 12.2344,21.7968 24.6094,43.4531 z M 177.3281,326.25 q -14.9062,-12.5156 -29.5312,-25.4531 0,-1.125 0.1406,-3.3047 0.1406,-2.1797 0.1406,-3.3047 0,-1.4063 -0.1406,-2.3906 l 29.3906,34.4531 z m -18.5625,9.9844 q -9.8437,-6.8906 -15.0468,-11.1094 -0.1407,-1.125 -0.1407,-2.3906 0,-0.7032 0.1407,-2.8125 0,-1.6875 0,-2.6719 l 15.0468,18.9844 z m 88.5938,-149.0625 q -10.5469,-11.1094 -32.3438,-32.7657 -3.2344,-3.375 -10.125,-9.1406 -2.5312,-1.8281 -8.2968,-1.8281 -0.8438,0 -1.125,0 l -34.4532,3.375 48.6563,48.5156 37.6875,-8.1562 z m -74.6719,38.6719 -55.8281,-51.6094 -5.0625,0 q -0.7031,0.7031 -0.7031,2.5312 0,2.25 0.914,3.7266 0.9141,1.4766 19.1953,22.1484 10.9688,12.375 29.5313,34.0313 3.9375,-3.6563 11.9531,-10.8281 z m -65.25,-113.9063 Q 102.9375,105.75 84.5156,93.7969 81,91.5469 70.3125,88.1719 59.0625,84.7969 55.2656,85.0781 l -31.5,2.6719 -2.6718,30.9375 q -0.1407,0.9844 2.9531,12.7969 5.4843,21.2344 24.3281,39.5156 2.5312,-17.5781 22.0078,-37.0547 19.4766,-19.4765 37.0547,-22.0078 z m 143.5781,203.2031 q -9.4218,-16.1718 -18.9844,-32.4844 -9.5624,-18.2812 -12.7968,-35.1562 -0.2813,-1.4062 -5.0625,-10.6875 -8.5781,-16.5937 -22.2188,-16.5937 -4.5,0 -13.3593,6.6093 -6.0469,4.5 -13.0782,13.6407 -8.7187,11.3906 -8.7187,15.3281 0,7.3125 6.4687,14.9062 6.0469,7.1719 13.2188,9.8438 4.7812,1.125 14.3437,4.0781 6.4688,2.6719 60.1875,30.5156 z m -54,-113.625 -86.625,-86.2031 q -3.9375,1.8281 -11.8125,5.2031 -20.1093,7.1719 -34.3125,27.2813 -7.875,11.25 -13.0781,26.7187 l 86.7656,86.625 q 0.7031,-6.3281 14.0625,-23.0625 -15.3281,-17.4375 -43.875,-53.7187 -4.0781,-5.7656 -4.0781,-14.0625 0,-0.8438 0.1406,-1.6875 1.5469,-0.8438 4.0781,-0.8438 8.4376,0 18.8438,8.2969 7.875,7.1719 15.8906,14.3437 10.125,8.5782 30.375,25.5938 5.625,-4.3594 11.1094,-8.5781 6.8906,-5.2031 12.5156,-5.9063 z m -65.25,72.2813 -49.0781,-49.2188 -2.25,23.4844 q -1.125,11.6719 -1.125,11.6719 0,6.1875 10.5469,17.4375 7.5937,7.7343 15.3281,15.6093 3.7969,4.3594 18.5625,19.125 l 8.0156,-38.1093 z"
         id="path9"
         inkscape:connector-curvature="0"
         style="stroke:none" />
    </g>
  </g>
</svg>

<?xml version="1.0"?>

<!DOCTYPE svg PUBLIC '-//W3C//DTD SVG 1.0//EN' 'http://www.w3.org/TR/2001/REC-SVG-20010904/DTD/svg10.dtd'>
<svg fill-opacity="1" xmlns:xlink="http://www.w3.org/1999/xlink" color-rendering="auto" color-interpolation="auto" stroke="black" text-rendering="auto" stroke-linecap="square" stroke-miterlimit="10" stroke-opacity="1" shape-rendering="auto" fill="black" stroke-dasharray="none" font-weight="normal" stroke-width="1" xmlns="http://www.w3.org/2000/svg" font-family="&apos;Dialog&apos;" font-style="normal" stroke-linejoin="miter" font-size="12" stroke-dashoffset="0" image-rendering="auto">
  <!--Unicode Character 'ROCKET' (U+1F680)-->
  <defs id="genericDefs" />
  <g>
    <g>
      <path d="M272.8125 222.0469 L272.1094 222.8906 L253.2656 207.1406 L260.5781 207.1406 L272.8125 222.0469 ZM262.2656 240.1875 Q262.125 241.5938 261.5625 241.4531 L228.375 211.9219 Q229.5 211.9219 231.5391 211.5703 Q233.5781 211.2188 234.7031 211.2188 Q236.6719 211.2188 237.7969 212.3438 Q239.625 214.1719 250.9453 226.9688 Q262.2656 239.7656 262.2656 240.1875 ZM272.25 335.8125 Q255.375 325.6875 221.0625 306.2812 Q209.25 299.9531 195.6094 295.7344 Q191.9531 295.0312 184.5 293.3438 Q171.9844 289.8281 166.5 286.875 Q157.2188 281.8125 154.5469 273.0938 Q153.9844 271.125 153.2812 271.125 Q151.7344 271.125 148.2891 273.4453 Q144.8438 275.7656 144.2812 277.3125 Q144.1406 277.7344 142.3125 287.8594 Q139.3594 303.6094 137.8125 314.4375 Q137.25 320.625 134.8594 332.4375 Q134.4375 333.8438 132.0469 335.8125 Q119.5312 323.4375 94.2188 297.9844 Q87.75 291.7969 75.375 279 Q72.9844 276.4688 69.6797 266.625 Q66.375 256.7812 66.6562 253.4062 L70.875 213.6094 Q71.0156 212.3438 54.5625 195.6094 Q45 185.9062 35.2969 176.2031 Q31.6406 172.6875 25.4531 164.9531 Q11.5312 143.1562 11.5312 120.7969 Q11.5312 99.7031 17.4375 80.5781 Q37.8281 75.5156 55.9688 75.5156 Q72.5625 75.5156 88.1719 82.8281 Q92.5312 84.375 100.4062 88.4531 Q105.6094 92.25 116.7188 102.7969 Q125.2969 111.2344 133.875 119.8125 Q148.9219 134.5781 150.3281 134.4375 L189.8438 130.6406 Q204.1875 129.2344 215.5781 138.9375 Q227.5312 149.0625 271.8281 196.1719 Q270.7031 197.1562 268.875 198.4219 Q268.875 198.4219 257.3438 200.3906 L234.9844 204.1875 Q226.2656 204.6094 212.2031 208.2656 Q209.8125 209.6719 207.1406 217.2656 Q211.9219 219.375 217.0547 225.3516 Q222.1875 231.3281 223.875 236.3906 Q224.8594 240.0469 226.9688 247.5 Q232.875 265.7812 247.6406 292.3594 Q259.875 314.1562 272.25 335.8125 ZM177.3281 326.25 Q162.4219 313.7344 147.7969 300.7969 Q147.7969 299.6719 147.9375 297.4922 Q148.0781 295.3125 148.0781 294.1875 Q148.0781 292.7812 147.9375 291.7969 L177.3281 326.25 ZM158.7656 336.2344 Q148.9219 329.3438 143.7188 325.125 Q143.5781 324 143.5781 322.7344 Q143.5781 322.0312 143.7188 319.9219 Q143.7188 318.2344 143.7188 317.25 L158.7656 336.2344 ZM247.3594 187.1719 Q236.8125 176.0625 215.0156 154.4062 Q211.7812 151.0312 204.8906 145.2656 Q202.3594 143.4375 196.5938 143.4375 Q195.75 143.4375 195.4688 143.4375 L161.0156 146.8125 L209.6719 195.3281 L247.3594 187.1719 ZM172.6875 225.8438 L116.8594 174.2344 L111.7969 174.2344 Q111.0938 174.9375 111.0938 176.7656 Q111.0938 179.0156 112.0078 180.4922 Q112.9219 181.9688 131.2031 202.6406 Q142.1719 215.0156 160.7344 236.6719 Q164.6719 233.0156 172.6875 225.8438 ZM107.4375 111.9375 Q102.9375 105.75 84.5156 93.7969 Q81 91.5469 70.3125 88.1719 Q59.0625 84.7969 55.2656 85.0781 L23.7656 87.75 L21.0938 118.6875 Q20.9531 119.6719 24.0469 131.4844 Q29.5312 152.7188 48.375 171 Q50.9062 153.4219 70.3828 133.9453 Q89.8594 114.4688 107.4375 111.9375 ZM251.0156 315.1406 Q241.5938 298.9688 232.0312 282.6562 Q222.4688 264.375 219.2344 247.5 Q218.9531 246.0938 214.1719 236.8125 Q205.5938 220.2188 191.9531 220.2188 Q187.4531 220.2188 178.5938 226.8281 Q172.5469 231.3281 165.5156 240.4688 Q156.7969 251.8594 156.7969 255.7969 Q156.7969 263.1094 163.2656 270.7031 Q169.3125 277.875 176.4844 280.5469 Q181.2656 281.6719 190.8281 284.625 Q197.2969 287.2969 251.0156 315.1406 ZM197.0156 201.5156 L110.3906 115.3125 Q106.4531 117.1406 98.5781 120.5156 Q78.4688 127.6875 64.2656 147.7969 Q56.3906 159.0469 51.1875 174.5156 L137.9531 261.1406 Q138.6562 254.8125 152.0156 238.0781 Q136.6875 220.6406 108.1406 184.3594 Q104.0625 178.5938 104.0625 170.2969 Q104.0625 169.4531 104.2031 168.6094 Q105.75 167.7656 108.2812 167.7656 Q116.7188 167.7656 127.125 176.0625 Q135 183.2344 143.0156 190.4062 Q153.1406 198.9844 173.3906 216 Q179.0156 211.6406 184.5 207.4219 Q191.3906 202.2188 197.0156 201.5156 ZM131.7656 273.7969 L82.6875 224.5781 L80.4375 248.0625 Q79.3125 259.7344 79.3125 259.7344 Q79.3125 265.9219 89.8594 277.1719 Q97.4531 284.9062 105.1875 292.7812 Q108.9844 297.1406 123.75 311.9062 L131.7656 273.7969 Z" stroke="none" />
    </g>
  </g>
</svg>
